packages/components/src/telekom/icons/weather/cloudy-rain/default.svg

<?xml version="1.0" encoding="UTF-8"?>
<svg width="24px" height="24px" viewBox="0 0 24 24" version="1.1" xmlns="http://www.w3.org/2000/svg" xmlns:xlink="http://www.w3.org/1999/xlink">
    <title>icon/weather/cloudy-rain/default</title>
    <g id="icon/weather/cloudy-rain/default" stroke="none" stroke-width="1" fill="none" fill-rule="evenodd">
        <path d="M9.3652,18.1956 C9.4513,18.1165 9.58241875,18.1712312 9.59991875,18.2743117 L9.6,18.3212 L9.1208,21.3844 C9.016,22.0536 8.3884,22.5116 7.7188,22.4068 C6.74513333,22.2546167 6.35446875,21.0881493 6.99074685,20.3796894 L7.0796,20.29 L9.3652,18.1956 Z M8.1152,14.036 C8.2013,13.95725 8.33241875,14.0117187 8.34991875,14.1149961 L8.35,14.162 L7.8204,17.5484 C7.706,18.2804 7.0196,18.7808 6.2872,18.6664 C5.21873846,18.4990923 4.79191893,17.2156604 5.49782301,16.4419007 L5.588,16.3516 L8.1152,14.036 Z M13.0492,12.7316 C13.1353,12.6525 13.2661125,12.7072312 13.2838039,12.8105797 L13.284,12.8576 L12.6684,16.7932 C12.5372,17.6316 11.7512,18.2048 10.9128,18.0736 C9.68622857,17.8815143 9.19832755,16.4040082 10.0161309,15.5186419 L10.1124,15.4228 L13.0492,12.7316 Z M10.4996,5.9812 C12.8528,5.9812 14.928,7.4328 15.742,9.62 C17.122,10.3508 18,11.7924 18,13.3636 C18,15.6288121 16.2130307,17.4844242 13.9750876,17.5948055 L13.764,17.6 L13.6788,17.6 C13.7321333,17.4693333 13.7771111,17.3336889 13.8112444,17.1930667 L13.854,16.9784 L13.946,16.3908 C15.5352,16.2956 16.8,14.9764 16.8,13.3636 C16.8,12.2400889 16.172763,11.2089864 15.1865158,10.6837529 L15.0088,10.5964 L14.766,10.4868 L14.6844,10.2328 C14.0988,8.4072 12.4168,7.1808 10.4992,7.1808 C9.49415385,7.1808 8.52455385,7.5264 7.74235703,8.159397 L7.5508,8.3236 L7.2888,8.5616 L6.954,8.4472 C6.7108,8.3644 6.4628,8.3224 6.2156,8.3224 C5.01001667,8.3224 4.01970694,9.26247708 3.93927416,10.4480279 L3.934,10.604 L3.958,11.1208 L3.5852,11.2872 C2.6224,11.7176 2,12.6752 2,13.7272 C2,15.0228 2.9268,16.1056 4.1524,16.348 C3.9944,16.7188 3.9328,17.1236 3.9652,17.532 C2.1668,17.1984 0.8,15.6208 0.8,13.7272 C0.8,12.3356 1.5504,11.0584 2.742,10.372 C2.862,8.56 4.3744,7.1228 6.216,7.1228 C6.48,7.1228 6.744,7.1536 7.0036,7.2144 C7.9964,6.4168 9.2252,5.9812 10.4996,5.9812 Z M19.7464,10.5464 C19.9547556,10.3384 20.277837,10.3152889 20.5116872,10.4770667 L20.5948,10.5464 L21.444,11.3948 C21.6784,11.6292 21.6784,12.0092 21.444,12.2436 C21.3268,12.3608 21.1732,12.4192 21.0196,12.4192 C20.89672,12.4192 20.77384,12.381568 20.6695968,12.3067136 L20.5952,12.2436 L19.7464,11.3952 C19.512,11.1608 19.512,10.7804 19.7464,10.5464 Z M16.6,4.4 C18.2544,4.4 19.6,5.7456 19.6,7.4 C19.6,8.532 18.9696,9.5184 18.042,10.0292 C17.668,9.5496 17.2196,9.1256 16.698,8.7904 C16.1328,7.5272 15.2076,6.4956 14.0704,5.794 C14.6032,4.9576 15.5368,4.4 16.6,4.4 Z M22.85,6.8 C23.1812,6.8 23.45,7.0684 23.45,7.4 C23.45,7.69844 23.232272,7.945688 22.9472816,7.9921532 L22.85,8 L21.65,8 C21.3188,8 21.05,7.7316 21.05,7.4 C21.05,7.10156 21.267728,6.854312 21.5527184,6.8078468 L21.65,6.8 L22.85,6.8 Z M20.5956,2.5564 C20.83,2.3224 21.2096,2.322 21.444,2.5564 C21.6523556,2.76475556 21.6755062,3.08815309 21.5134519,3.32207353 L21.444,3.4052 L20.5952,4.2536 C20.478,4.3708 20.3244,4.4292 20.1708,4.4292 C20.0172,4.4292 19.8636,4.3704 19.7468,4.2536 C19.5384444,4.04524444 19.5152938,3.72184691 19.6773481,3.48792647 L19.7468,3.4048 L20.5956,2.5564 Z M11.7568,2.5564 C11.9651556,2.3484 12.288237,2.32528889 12.5220872,2.48706667 L12.6052,2.5564 L13.454,3.4048 C13.6884,3.6392 13.6884,4.0192 13.454,4.2536 C13.3368,4.3708 13.1832,4.4292 13.0296,4.4292 C12.90672,4.4292 12.78384,4.391568 12.6795968,4.3167136 L12.6052,4.2536 L11.7568,3.4052 C11.5224,3.1708 11.5224,2.7904 11.7568,2.5564 Z M16.6,0.55 C16.89808,0.55 17.145616,0.767404 17.1921424,1.0526212 L17.2,1.15 L17.2,2.35 C17.2,2.6816 16.9312,2.95 16.6,2.95 C16.30192,2.95 16.054384,2.732596 16.0078576,2.4473788 L16,2.35 L16,1.15 C16,0.8184 16.2688,0.55 16.6,0.55 Z" id="Shape" fill="#262626" fill-rule="nonzero"></path>
    </g>
</svg>

<svg width="24" height="24" xmlns="http://www.w3.org/2000/svg"><path d="M9.365 18.196a.141.141 0 01.235.078v.047l-.48 3.063a1.227 1.227 0 01-1.401 1.023c-.974-.152-1.365-1.319-.728-2.027l.089-.09 2.285-2.094zm-1.25-4.16a.142.142 0 01.235.079v.047l-.53 3.386a1.342 1.342 0 01-1.533 1.118c-1.068-.167-1.495-1.45-.79-2.224l.091-.09 2.527-2.316zm4.934-1.304a.141.141 0 01.235.079v.047l-.616 3.935a1.536 1.536 0 01-1.755 1.28c-1.227-.191-1.715-1.669-.897-2.554l.096-.096 2.937-2.691zm-2.55-6.75a5.577 5.577 0 015.243 3.638A4.246 4.246 0 0118 13.364a4.242 4.242 0 01-4.025 4.23l-.211.006h-.085c.053-.13.098-.266.132-.407l.043-.215.092-.587a3.038 3.038 0 002.854-3.027 3.044 3.044 0 00-1.613-2.68l-.178-.088-.243-.11-.082-.253A4.381 4.381 0 0010.5 7.18a4.377 4.377 0 00-2.757.978l-.191.165-.262.238-.335-.115a2.286 2.286 0 00-.738-.125c-1.206 0-2.196.94-2.277 2.126l-.005.156.024.517-.373.166A2.677 2.677 0 002 13.727c0 1.296.927 2.379 2.152 2.621-.158.37-.22.776-.187 1.184A3.877 3.877 0 01.8 13.727c0-1.391.75-2.669 1.942-3.355a3.486 3.486 0 014.262-3.158A5.574 5.574 0 0110.5 5.981zm9.247 4.564a.6.6 0 01.766-.069l.083.07.849.848a.6.6 0 01-.774.912l-.075-.063-.849-.849a.6.6 0 010-.849zM16.6 4.4c1.654 0 3 1.346 3 3 0 1.132-.63 2.118-1.558 2.63a5.44 5.44 0 00-1.344-1.24 6.765 6.765 0 00-2.628-2.996A2.998 2.998 0 0116.6 4.4zm6.25 2.4a.6.6 0 01.097 1.192L22.85 8h-1.2a.6.6 0 01-.097-1.192l.097-.008h1.2zm-2.254-4.244a.6.6 0 01.917.766l-.069.083-.849.849a.598.598 0 01-.848 0 .6.6 0 01-.07-.766l.07-.083.849-.849zm-8.84 0a.6.6 0 01.766-.069l.083.07.849.848a.6.6 0 01-.774.912l-.075-.063-.848-.849a.6.6 0 010-.849zM16.6.55a.6.6 0 01.592.503l.008.097v1.2a.6.6 0 01-1.192.097L16 2.35v-1.2a.6.6 0 01.6-.6z" fill="#000" fill-rule="evenodd"/></svg>
